X: 42981
T: Willie Murray's
R: reel
M: 4/4
K: Eminor
G2 EF G2 EF|G2 EF GEBA|G2 EF G2 EG|F2 DE FGAF|
G2 EF G2 EF|G2 EF GEBA|G2 EF GEBG|F2 DE FGAF||
Gdcd BGdG|B2 GA BcdB|Gdcd BGdG|F2 DE FGAF|
Gdcd BGdG|B2 GA BcdB|cABG AF d2|F2 DE FGAF||

